svgs/credit_mutuel.svg

<svg width="192" height="192" viewBox="0 0 192 192" fill="none" xmlns="http://www.w3.org/2000/svg">
<path d="M96.6477 105.213C108.739 105.08 119.467 113.102 122.71 124.738C125.954 136.374 120.961 148.734 110.54 154.862C100.12 160.99 86.8773 159.356 78.2645 150.878C69.6516 142.4 67.821 129.198 73.803 118.701" stroke="black" stroke-width="12" stroke-linejoin="round"/>
<path d="M96.6477 105.213C89.9253 95.2272 90.7835 81.9517 98.8187 72.9864C106.854 64.0211 119.956 61.6459 130.633 67.2189C141.31 72.7919 146.838 84.8916 144.058 96.5997C141.277 108.308 130.897 116.638 118.851 116.827" stroke="black" stroke-width="12" stroke-linejoin="round"/>
<path d="M96.6477 105.213C90.6784 115.575 78.4834 120.808 66.8673 117.925C55.2511 115.042 46.9548 104.818 46.5359 92.8693C46.1169 80.921 53.6769 70.1424 65.0627 66.4546C76.4484 62.7668 88.9023 67.0631 95.5828 76.9834" stroke="black" stroke-width="12" stroke-linejoin="round"/>
<path d="M22 125.31L77.3346 32.75L116.478 32.7678L170 125.282L149.884 159.233L41.1391 159.25L22 125.31Z" stroke="black" stroke-width="12" stroke-linejoin="round"/>
</svg>

<svg width="192" height="192" fill="none" xmlns="http://www.w3.org/2000/svg"><path d="M96.648 105.213c12.091-.133 22.819 7.889 26.062 19.525 3.244 11.636-1.749 23.996-12.17 30.124-10.42 6.128-23.663 4.494-32.276-3.984a26.636 26.636 0 0 1-4.461-32.177" stroke="#000" stroke-width="12" stroke-linejoin="round"/><path d="M96.648 105.213c-6.723-9.986-5.864-23.261 2.17-32.227 8.036-8.965 21.138-11.34 31.815-5.767 10.677 5.573 16.205 17.673 13.425 29.38-2.781 11.709-13.161 20.039-25.207 20.228" stroke="#000" stroke-width="12" stroke-linejoin="round"/><path d="M96.648 105.213c-5.97 10.362-18.165 15.595-29.78 12.712-11.617-2.883-19.913-13.107-20.332-25.056-.42-11.948 7.14-22.727 18.527-26.414 11.385-3.688 23.84.608 30.52 10.528" stroke="#000" stroke-width="12" stroke-linejoin="round"/><path d="m22 125.31 55.335-92.56 39.143.018L170 125.282l-20.116 33.951-108.745.017L22 125.31Z" stroke="#000" stroke-width="12" stroke-linejoin="round"/></svg>
